!!!OTL@@FUR: Je rivade la zornade
!!!OTL@IT: E' arrivato il giorno
!!!OTL@EN: The big day is here
**kern
*clefG2
*k[f#]
*G:
*M3/4
*MM60
*>[A,A]
*>A
4d
4d
=1
2.b
=2
4b
4a
4b
=3
4cc
[2b
=4
4b]
4d
4d
=5
2.b
=6
4b
4a
4b
=7
4cc
[2b
=8
4b]
4dd
4dd
=9
4ee
8ee
8dd
8ee
8dd
=10
4cc
4dd
4ee
=11
4dd
8dd
8cc
8dd
8cc
=12
4b
4a
4b
=13
4cc
2a
=14
4a
4b
4cc
=15
[2.b
=16
4b]
4r
4r
==:|!
*-
!!!ARE: Friuli
!!!ENC: Kelly Leistikow
!!!END: 2002/03/07
!!!ref: @{OTL@@FUR}/@{OTL@EN}
